public/avatar/body/160.svg

<svg xmlns:xlink="http://www.w3.org/1999/xlink" height="82" width="84.85" xmlns="http://www.w3.org/2000/svg"><g transform="translate(37.4 42.25)"><use height="38" transform="translate(-11.95 -17.45)" width="32.05" xlink:href="#a"/><use height="38.95" transform="translate(-12.45 -17.95)" width="33.05" xlink:href="#b"/><use height="27.9" transform="translate(-15.15 -.55)" width="38.65" xlink:href="#c"/></g><defs><path d="M27.35 7.4q2.15 4.15 3.55 8.75 1.45 4.7 1.15 9.5-.35 4.95-4.2 8.1-3.8 3.2-8.75 4.05l-2.6.2q-3.6 0-7.05-1.15-4.65-1.6-7.1-5.5Q-.2 27.4.05 23q.2-4.4 2-9.3Q3.85 8.75 7 5.05 10.1 1.3 14.7.1l1.8-.1q1.9.05 3.7.8 4.75 2.05 7.15 6.6" fill="#f8b78f" fill-rule="evenodd" transform="translate(-.05)" id="d"/><path d="M27.35 7.4Q24.95 2.85 20.2.8 17.55-.3 14.7.1 10.1 1.3 7 5.05q-3.15 3.7-4.95 8.65-1.8 4.9-2 9.3-.25 4.4 2.3 8.35 2.45 3.9 7.1 5.5 4.65 1.55 9.65.95 4.95-.85 8.75-4.05 3.85-3.15 4.2-8.1.3-4.8-1.15-9.5-1.4-4.6-3.55-8.75Z" fill="none" stroke="#333" stroke-linecap="round" stroke-linejoin="round" transform="translate(.45 .5)" id="e"/><use height="38" width="32.05" xlink:href="#d" id="a"/><use height="38.95" width="33.05" xlink:href="#e" id="b"/><g id="c" fill-rule="evenodd"><path d="m22.95 3.05.55 2.8-.95 1.05-.35.25-1.2.6q.25 6.7-3.95 12.05.6 1.65.45 3.4l-.3 1.55q-3.3-3.45-7.85-4.6-1.1 4.55-4.85 7l-.4.2q-3.7-2.9-4.7-7.3-4.15 1.35-7.25 4.75-.85-.8-.6-2.15l.4-2.25q-4.65-5.45-4.6-12.65l-1.05-.5-.55-.45-.9-1.3.55-1.75.05-.85.85-.75.3-1.35q3.35-2.05 7.2-.7l1.05.55.1 2.35q6.45 2.6 9.3 8.75 3-5.9 9.2-8.75L13.6.65l3.8-1.2L21.75.8l1.2 2.25m-5.9.65 5.2-.55-1.05-.95-5.5.8.05-.8q1.9-.8 3.85-.95l1.3-.05L18.35.1 14.2.95v1.1l2.85 2.45 1.75 1.85 2.9-.65 1.05-.35-.45-1.15-5.25.25V3.7m-9.2 7q5.65.2 10.35-2.3l.95-.65-1.5-1.4-2.4-2-.7-.35q-9 2.35-9.25 10.7-.05 1.5 1.05 2.65 5.8 6.1 10.9.8l.9-1.25q-4.95 1.75-10.25-.2l-.05-.1 5.85.6q3.1.4 4.65-1.85l.35.25.8-2.5-1.85.45-9.3.4q6.1.9 11.2-2.2l.75-3.8-.6.25q-5.25 3.45-11.9 2.55l.05-.05m-6.7 5.8-.05.05-1.7.55-7.05.5-.35-.1-.6-.25-.25-.15-1.05-.5 1.1 1.8 1.45 1.2.95.3.15.2-.1-.15q5.3 1.4 9.2-3.6.6-.7.55-1.5-.4-8.4-9.25-10.9L-7.9 5.4l-2.45 2.05.6.65Q-5 11.2.95 10.7v.05l-3.5.05Q-6.55 11-10 9l-1.2-.85-.7-.2.35 3.35.8.85.15.1.8.5.6.25q5.2 1.6 10.7.7l-1.85.35q-4.3.65-8.65-.2l-.6-.2-.85-.5-.15-.1-.65-.35.95 2.9.6-.05.25.15.9.7.55.35 9.15-.25m7.45 3.3-4.25-3.75L.1 19.8l4.05 6.55q1.05-.2 1.7-1.2L7.3 22.5l1.3-2.7m8.4 3.6v-.55l-.35-2.65-2.1 1.2 2.45 2M-13.9 3.2l4.4.55.9.35 1.3-1.05-4.35-.7-1.25-.1-1 .95M-9.2.25-9.8.1q-1.6 0-2.75 1l3.75.55 1.45.5L-5.8.95l-3.4-.7m-3.65 4.15-1.2-.15-.35 1.1.9.45 1.1.5h2.05l1.7-1.35-4.2-.55m7.5 17.05-2.2-.65-.05 2.9q.9-.35 1.5-1.15l.75-1.1" fill="#424242" transform="translate(15.15 .55)"/><path d="M17.05 3.7v.8L14.2 2.05V.95l1.55 1.25-.05.8 1.35.7m-9.2 7q2.75-3.2 6.55-4.65l-.9-1.25-2.75 1.65-2.3 2.05q-.9.95-1.45 1.85L6 12.3l-.25.6.15-.25q-.95 3.65 3.95 6.15L7.9 16.7q5.3 1.95 10.25.2l-.9 1.25q-5.1 5.3-10.9-.8-1.1-1.15-1.05-2.65.25-8.35 9.25-10.7l.7.35.65 2.05 1.75-.05 1.5 1.4-.95.65q-4.7 2.5-10.35 2.3m-6.9.05.55 1.2q.85 2.25-.35 4.55l-9.15.25-1-2.9q4.35.85 8.65.2l1.85-.35q-5.5.9-10.7-.7l-.8-4q3.45 2 7.45 1.8l3.5-.05m.15 5.8L-.3 17.9q2.4-.35 2.7-2.65.95-7.8-7.3-10.65L-6 6.05l2.05.9q2.9 1.45 4.9 3.75-5.95.5-10.7-2.6l-.6-.65L-7.9 5.4l2.05-1.45Q3 6.45 3.4 14.85q.05.8-.55 1.5-3.9 5-9.2 3.6l-1.3-2.35 7.05-.5 1.7-.55m6.7-5.8q6.65.9 11.9-2.55l.6-.25-.75 3.8q-5.1 3.1-11.2 2.2l9.3-.4 1.85-.45-.8 2.5-.35-.25Q16.8 17.6 13.7 17.2l-5.85-.6L7 13.7l1.35.25L7 13.7l.8-2.95M-6.4 19.9l-.95-.3-1.45-1.2-1.1-1.8 1.05.5 2.45 2.8m9 3.15.8 1.35.95 1.2-.8-7.6-2.45 2.15 1.5 2.9m6-3.25-1.3 2.7-1.45 2.65q-.65 1-1.7 1.2L.1 19.8l4.25-3.75L8.6 19.8m8.4 3.6-2.45-2 2.1-1.2.35 2.65v.55m-27.75-11.25-.8-.85-.35-3.35.7.2.2 1.7.05.35.2 1.95m1.05 3.4-.6.05-.95-2.9.65.35.9 2.5m4.35 5.9-.75 1.1q-.6.8-1.5 1.15l.05-2.9 2.2.65" fill="#838386" transform="translate(15.15 .55)"/><path d="m15.7 3 5.5-.8 1.05.95-5.2.55L15.7 3m1.35 1.45 5.25-.25.45 1.15-1.05.35-2.9.65-1.75-1.85v-.05M14.2.95 18.35.1l2.55 1.1-1.3.05q-1.95.15-3.85.95L14.2.95M6 12.3l1-1.95q.55-.9 1.45-1.85l2.3-2.05L13.5 4.8l.9 1.25Q10.6 7.5 7.85 10.7l-.05.05L7 13.7l.85 2.9.05.1 1.95 2.1q-4.9-2.5-3.95-6.15l.1-.35m11.65-5.95-1.75.05-.65-2.05 2.4 2M.9 9.6l-.65-.75q-1.1-1.3-2.45-2.2L-3.1 6l-1.1-.55-.55.7L.9 9.6m.25 6.9q1.2-2.3.35-4.55l-.55-1.2v-.05q-2-2.3-4.9-3.75L-6 6.05l1.1-1.45q8.25 2.85 7.3 10.65-.3 2.3-2.7 2.65l1.4-1.35.05-.05M-10 9l.8 4-.6-.25-.45-2.15-.75-.75-.2-1.7L-10 9m1 4.85 1 2.9-.55-.35-1.05-2.75.6.2m2.65 6.1.1.15-.15-.2-2.45-2.8.25.15 1.8 2.15-1.2-1.9.35.1 1.3 2.35m8.95 3.1-1.5-2.9L3.55 18l.8 7.6-.95-1.2-.8-1.35m-14.25-20.7 4.35.7-1.3 1.05-.9-.35-4.4-.55 1.3-.05.95-.8M-9.2.25l3.4.7-1.55 1.2-1.45-.5-3.75-.55L-9.2.25m-4.3 5.55.65-1.4 4.2.55-1.7 1.35h-2.05l-1.1-.5m2.75 6.35-.2-1.95.35 2.05-.15-.1m.15.9.15.1 1 2.55-.25-.15-.9-2.5" fill="#ababab" transform="translate(15.15 .55)"/><path d="m5.9 12.65-.15.25.25-.6-.1.35M.9 9.6l-5.65-3.45.55-.7 1.1.55.9.65q1.35.9 2.45 2.2l.65.75m-9.5 7.65.6.25 1.2 1.9-1.8-2.15M-13.9 3.2l1-.95 1.25.1-.95.8-1.3.05m1.35-2.1q1.15-1 2.75-1l.6.15-3.35.85m-.3 3.3-.65 1.4-.9-.45.35-1.1 1.2.15m1.9 5.8-.05-.35.75.75.45 2.15-.8-.5-.35-2.05m.5 2.95.85.5 1.05 2.75-.9-.7-1-2.55" fill="#ccc" transform="translate(15.15 .55)"/></g></defs></svg>

<?xml version="1.0" encoding="UTF-8" standalone="no"?>
<svg xmlns:xlink="http://www.w3.org/1999/xlink" height="82.0px" width="84.85px" xmlns="http://www.w3.org/2000/svg">
  <g transform="matrix(1.0, 0.0, 0.0, 1.0, 37.4, 42.25)">
    <use height="38.0" transform="matrix(1.0, 0.0, 0.0, 1.0, -11.95, -17.45)" width="32.05" xlink:href="#sprite0"/>
    <use height="38.95" transform="matrix(1.0, 0.0, 0.0, 1.0, -12.45, -17.95)" width="33.05" xlink:href="#sprite1"/>
    <use height="27.9" transform="matrix(1.0, 0.0, 0.0, 1.0, -15.15, -0.55)" width="38.65" xlink:href="#shape2"/>
  </g>
  <defs>
    <g id="sprite0" transform="matrix(1.0, 0.0, 0.0, 1.0, -0.05, 0.0)">
      <use height="38.0" transform="matrix(1.0, 0.0, 0.0, 1.0, 0.05, 0.0)" width="32.05" xlink:href="#shape0"/>
    </g>
    <g id="shape0" transform="matrix(1.0, 0.0, 0.0, 1.0, -0.05, 0.0)">
      <path d="M27.35 7.4 Q29.5 11.55 30.9 16.15 32.35 20.85 32.05 25.65 31.7 30.6 27.85 33.75 24.05 36.95 19.1 37.8 L16.5 38.0 Q12.9 38.0 9.45 36.85 4.8 35.25 2.35 31.35 -0.2 27.4 0.05 23.0 0.25 18.6 2.05 13.7 3.85 8.75 7.0 5.05 10.1 1.3 14.7 0.1 L16.5 0.0 Q18.4 0.05 20.2 0.8 24.95 2.85 27.35 7.4" fill="#f8b78f" fill-rule="evenodd" stroke="none"/>
    </g>
    <g id="sprite1" transform="matrix(1.0, 0.0, 0.0, 1.0, 0.45, 0.5)">
      <use height="38.95" transform="matrix(1.0, 0.0, 0.0, 1.0, -0.45, -0.5)" width="33.05" xlink:href="#shape1"/>
    </g>
    <g id="shape1" transform="matrix(1.0, 0.0, 0.0, 1.0, 0.45, 0.5)">
      <path d="M27.35 7.4 Q24.95 2.85 20.2 0.8 17.55 -0.3 14.7 0.1 10.1 1.3 7.0 5.05 3.85 8.75 2.05 13.7 0.25 18.6 0.05 23.0 -0.2 27.4 2.35 31.35 4.8 35.25 9.45 36.85 14.1 38.4 19.1 37.8 24.05 36.95 27.85 33.75 31.7 30.6 32.05 25.65 32.35 20.85 30.9 16.15 29.5 11.55 27.35 7.4 Z" fill="none" stroke="#333333" stroke-linecap="round" stroke-linejoin="round" stroke-width="1.0"/>
    </g>
    <g id="shape2" transform="matrix(1.0, 0.0, 0.0, 1.0, 15.15, 0.55)">
      <path d="M22.95 3.05 L23.5 5.85 22.55 6.9 22.2 7.15 21.0 7.75 Q21.25 14.45 17.05 19.8 17.65 21.45 17.5 23.2 L17.2 24.75 Q13.9 21.3 9.35 20.15 8.25 24.7 4.5 27.15 L4.1 27.35 Q0.4 24.45 -0.6 20.05 -4.75 21.4 -7.85 24.8 -8.7 24.0 -8.45 22.65 L-8.05 20.4 Q-12.7 14.95 -12.65 7.75 L-13.7 7.25 -14.25 6.8 -15.15 5.5 -14.6 3.75 -14.55 2.9 -13.7 2.15 -13.4 0.8 Q-10.05 -1.25 -6.2 0.1 L-5.15 0.65 -5.05 3.0 Q1.4 5.6 4.25 11.75 7.25 5.85 13.45 3.0 L13.6 0.65 17.4 -0.55 21.75 0.8 22.95 3.05 M17.05 3.7 L22.25 3.15 21.2 2.2 15.7 3.0 15.75 2.2 Q17.65 1.4 19.6 1.25 L20.9 1.2 18.35 0.1 14.2 0.95 14.2 2.05 17.05 4.5 18.8 6.35 21.7 5.7 22.75 5.35 22.3 4.2 17.05 4.45 17.05 3.7 M7.85 10.7 Q13.5 10.9 18.2 8.4 L19.15 7.75 17.65 6.35 15.25 4.35 14.55 4.0 Q5.55 6.35 5.3 14.7 5.25 16.2 6.35 17.35 12.15 23.45 17.25 18.15 L18.15 16.9 Q13.2 18.65 7.9 16.7 L7.85 16.6 13.7 17.2 Q16.8 17.6 18.35 15.35 L18.7 15.6 19.5 13.1 17.65 13.55 8.35 13.95 Q14.45 14.85 19.55 11.75 L20.3 7.95 19.7 8.2 Q14.45 11.65 7.8 10.75 L7.85 10.7 M1.15 16.5 L1.1 16.55 -0.6 17.1 -7.65 17.6 -8.0 17.5 -8.6 17.25 -8.85 17.1 -9.9 16.6 -8.8 18.4 -7.35 19.6 -6.4 19.9 -6.25 20.1 -6.35 19.95 Q-1.05 21.35 2.85 16.35 3.45 15.65 3.4 14.85 3.0 6.45 -5.85 3.95 L-7.9 5.4 -10.35 7.45 -9.75 8.1 Q-5.0 11.2 0.95 10.7 L0.95 10.75 -2.55 10.8 Q-6.55 11.0 -10.0 9.0 L-11.2 8.15 -11.9 7.95 -11.55 11.3 -10.75 12.15 -10.6 12.25 -9.8 12.75 -9.2 13.0 Q-4.0 14.6 1.5 13.7 L-0.35 14.05 Q-4.65 14.7 -9.0 13.85 L-9.6 13.65 -10.45 13.15 -10.6 13.05 -11.25 12.7 -10.3 15.6 -9.7 15.55 -9.45 15.7 -8.55 16.4 -8.0 16.75 1.15 16.5 M8.6 19.8 L4.35 16.05 0.1 19.8 4.15 26.35 Q5.2 26.15 5.85 25.15 L7.3 22.5 8.6 19.8 M17.0 23.4 L17.0 22.85 16.65 20.2 14.55 21.4 17.0 23.4 M-13.9 3.2 L-9.5 3.75 -8.6 4.1 -7.3 3.05 -11.65 2.35 -12.9 2.25 -13.9 3.2 M-9.2 0.25 L-9.8 0.1 Q-11.4 0.1 -12.55 1.1 L-8.8 1.65 -7.35 2.15 -5.8 0.95 -9.2 0.25 M-12.85 4.4 L-14.05 4.25 -14.4 5.35 -13.5 5.8 -12.4 6.3 -10.35 6.3 -8.65 4.95 -12.85 4.4 M-5.35 21.45 L-7.55 20.8 -7.6 23.7 Q-6.7 23.35 -6.1 22.55 L-5.35 21.45" fill="#424242" fill-rule="evenodd" stroke="none"/>
      <path d="M17.05 3.7 L17.05 4.45 17.05 4.5 14.2 2.05 14.2 0.95 15.75 2.2 15.7 3.0 17.05 3.7 M7.85 10.7 Q10.6 7.5 14.4 6.05 L13.5 4.8 10.75 6.45 8.45 8.5 Q7.55 9.45 7.0 10.35 L6.0 12.3 5.75 12.9 5.9 12.65 Q4.95 16.3 9.85 18.8 L7.9 16.7 Q13.2 18.65 18.15 16.9 L17.25 18.15 Q12.15 23.45 6.35 17.35 5.25 16.2 5.3 14.7 5.55 6.35 14.55 4.0 L15.25 4.35 15.9 6.4 17.65 6.35 19.15 7.75 18.2 8.4 Q13.5 10.9 7.85 10.7 M0.95 10.75 L1.5 11.95 Q2.35 14.2 1.15 16.5 L-8.0 16.75 -9.0 13.85 Q-4.65 14.7 -0.35 14.05 L1.5 13.7 Q-4.0 14.6 -9.2 13.0 L-10.0 9.0 Q-6.55 11.0 -2.55 10.8 L0.95 10.75 M1.1 16.55 L-0.3 17.9 Q2.1 17.55 2.4 15.25 3.35 7.45 -4.9 4.6 L-6.0 6.05 -3.95 6.95 Q-1.05 8.4 0.95 10.7 -5.0 11.2 -9.75 8.1 L-10.35 7.45 -7.9 5.4 -5.85 3.95 Q3.0 6.45 3.4 14.85 3.45 15.65 2.85 16.35 -1.05 21.35 -6.35 19.95 L-7.65 17.6 -0.6 17.1 1.1 16.55 M7.8 10.75 Q14.45 11.65 19.7 8.2 L20.3 7.95 19.55 11.75 Q14.45 14.85 8.35 13.95 L17.65 13.55 19.5 13.1 18.7 15.6 18.35 15.35 Q16.8 17.6 13.7 17.2 L7.85 16.6 7.0 13.7 8.35 13.95 7.0 13.7 7.8 10.75 M-6.4 19.9 L-7.35 19.6 -8.8 18.4 -9.9 16.6 -8.85 17.1 -6.4 19.9 M2.6 23.05 L3.4 24.4 4.35 25.6 3.55 18.0 1.1 20.15 2.6 23.05 M8.6 19.8 L7.3 22.5 5.85 25.15 Q5.2 26.15 4.15 26.35 L0.1 19.8 4.35 16.05 8.6 19.8 M17.0 23.4 L14.55 21.4 16.65 20.2 17.0 22.85 17.0 23.4 M-10.75 12.15 L-11.55 11.3 -11.9 7.95 -11.2 8.15 -11.0 9.85 -10.95 10.2 -10.75 12.15 M-9.7 15.55 L-10.3 15.6 -11.25 12.7 -10.6 13.05 -9.7 15.55 M-5.35 21.45 L-6.1 22.55 Q-6.7 23.35 -7.6 23.7 L-7.55 20.8 -5.35 21.45" fill="#838386" fill-rule="evenodd" stroke="none"/>
      <path d="M15.7 3.0 L21.2 2.2 22.25 3.15 17.05 3.7 15.7 3.0 M17.05 4.45 L22.3 4.2 22.75 5.35 21.7 5.7 18.8 6.35 17.05 4.5 17.05 4.45 M14.2 0.95 L18.35 0.1 20.9 1.2 19.6 1.25 Q17.65 1.4 15.75 2.2 L14.2 0.95 M6.0 12.3 L7.0 10.35 Q7.55 9.45 8.45 8.5 L10.75 6.45 13.5 4.8 14.4 6.05 Q10.6 7.5 7.85 10.7 L7.8 10.75 7.0 13.7 7.85 16.6 7.9 16.7 9.85 18.8 Q4.95 16.3 5.9 12.65 L6.0 12.3 M17.65 6.35 L15.9 6.4 15.25 4.35 17.65 6.35 M0.9 9.6 L0.25 8.85 Q-0.85 7.55 -2.2 6.65 L-3.1 6.0 -4.2 5.45 -4.75 6.15 0.9 9.6 M1.15 16.5 Q2.35 14.2 1.5 11.95 L0.95 10.75 0.95 10.7 Q-1.05 8.4 -3.95 6.95 L-6.0 6.05 -4.9 4.6 Q3.35 7.45 2.4 15.25 2.1 17.55 -0.3 17.9 L1.1 16.55 1.15 16.5 M-10.0 9.0 L-9.2 13.0 -9.8 12.75 -10.25 10.6 -11.0 9.85 -11.2 8.15 -10.0 9.0 M-9.0 13.85 L-8.0 16.75 -8.55 16.4 -9.6 13.65 -9.0 13.85 M-6.35 19.95 L-6.25 20.1 -6.4 19.9 -8.85 17.1 -8.6 17.25 -6.8 19.4 -8.0 17.5 -7.65 17.6 -6.35 19.95 M2.6 23.05 L1.1 20.15 3.55 18.0 4.35 25.6 3.4 24.4 2.6 23.05 M-11.65 2.35 L-7.3 3.05 -8.6 4.1 -9.5 3.75 -13.9 3.2 -12.6 3.15 -11.65 2.35 M-9.2 0.25 L-5.8 0.95 -7.35 2.15 -8.8 1.65 -12.55 1.1 -9.2 0.25 M-13.5 5.8 L-12.85 4.4 -8.65 4.95 -10.35 6.3 -12.4 6.3 -13.5 5.8 M-10.75 12.15 L-10.95 10.2 -10.6 12.25 -10.75 12.15 M-10.6 13.05 L-10.45 13.15 -9.45 15.7 -9.7 15.55 -10.6 13.05" fill="#ababab" fill-rule="evenodd" stroke="none"/>
      <path d="M5.9 12.65 L5.75 12.9 6.0 12.3 5.9 12.65 M0.9 9.6 L-4.75 6.15 -4.2 5.45 -3.1 6.0 -2.2 6.65 Q-0.85 7.55 0.25 8.85 L0.9 9.6 M-8.6 17.25 L-8.0 17.5 -6.8 19.4 -8.6 17.25 M-13.9 3.2 L-12.9 2.25 -11.65 2.35 -12.6 3.15 -13.9 3.2 M-12.55 1.1 Q-11.4 0.1 -9.8 0.1 L-9.2 0.25 -12.55 1.1 M-12.85 4.4 L-13.5 5.8 -14.4 5.35 -14.05 4.25 -12.85 4.4 M-10.95 10.2 L-11.0 9.85 -10.25 10.6 -9.8 12.75 -10.6 12.25 -10.95 10.2 M-10.45 13.15 L-9.6 13.65 -8.55 16.4 -9.45 15.7 -10.45 13.15" fill="#cccccc" fill-rule="evenodd" stroke="none"/>
    </g>
  </defs>
</svg>
